icons/lines/information.svg

<svg xmlns="http://www.w3.org/2000/svg" width="24" height="24" viewBox="0 0 24 24" fill="none" stroke="currentColor" stroke-width="2" stroke-linecap="round" stroke-linejoin="round" >
  <path d="M10.7499 2.45001C11.4499 1.86001 12.5799 1.86001 13.2599 2.45001L14.8399 3.80001C15.1399 4.05001 15.7099 4.26001 16.1099 4.26001H17.8099C18.8699 4.26001 19.7399 5.13001 19.7399 6.19001V7.89001C19.7399 8.29001 19.9499 8.85001 20.1999 9.15001L21.5499 10.73C22.1399 11.43 22.1399 12.56 21.5499 13.24L20.1999 14.82C19.9499 15.12 19.7399 15.68 19.7399 16.08V17.78C19.7399 18.84 18.8699 19.71 17.8099 19.71H16.1099C15.7099 19.71 15.1499 19.92 14.8499 20.17L13.2699 21.52C12.5699 22.11 11.4399 22.11 10.7599 21.52L9.17988 20.17C8.87988 19.92 8.30988 19.71 7.91988 19.71H6.16988C5.10988 19.71 4.23988 18.84 4.23988 17.78V16.07C4.23988 15.68 4.03988 15.11 3.78988 14.82L2.43988 13.23C1.85988 12.54 1.85988 11.42 2.43988 10.73L3.78988 9.14001C4.03988 8.84001 4.23988 8.28001 4.23988 7.89001V6.20001C4.23988 5.14001 5.10988 4.27001 6.16988 4.27001H7.89988C8.29988 4.27001 8.85988 4.06001 9.15988 3.81001L10.7499 2.45001Z"/>
  <path d="M12 8.13V12.96"/>
  <path d="M11.9946 16H12.0036"/>
  </svg>

<svg xmlns="http://www.w3.org/2000/svg" width="24" height="24" viewBox="0 0 24 24" fill="none" stroke="currentColor" stroke-width="2" stroke-linecap="round" stroke-linejoin="round">
  <path d="M10.75 2.45c.7-.59 1.83-.59 2.51 0l1.58 1.35c.3.25.87.46 1.27.46h1.7a2 2 0 0 1 1.93 1.93v1.7c0 .4.21.96.46 1.26l1.35 1.58c.59.7.59 1.83 0 2.51l-1.35 1.58c-.25.3-.46.86-.46 1.26v1.7a2 2 0 0 1-1.93 1.93h-1.7c-.4 0-.96.21-1.26.46l-1.58 1.35c-.7.59-1.83.59-2.51 0l-1.58-1.35c-.3-.25-.87-.46-1.26-.46H6.17a2 2 0 0 1-1.93-1.93v-1.71c0-.39-.2-.96-.45-1.25l-1.35-1.59c-.58-.69-.58-1.81 0-2.5l1.35-1.59c.25-.3.45-.86.45-1.25V6.2a2 2 0 0 1 1.93-1.93H7.9c.4 0 .96-.21 1.26-.46z" />
  <path d="M11.995 16h.01" />
  <path d="M12 8.13v4.83" />
</svg>
